X:16489
T:The Black Mull
T:The Muilean Dubh
S:NLS MS.21743, tunebook of Archibald Clark, fifer in the 42nd, 1813
G:reel for fife or flute
M:C|
L:1/8
K:ADor
% dorian/mixolydian hexatonic
B|edef g2(fe)|dedB dedB|edef gage|dBgB A2A:|
B|eAed eAAB  |dGdB dGGB|eAed eAAf|gedB A2A:|
